<?xml version="1.0" encoding="UTF-8"?>
<map version="1.10" tiledversion="1.12.2" orientation="orthogonal" renderorder="right-down" width="40" height="20" tilewidth="16" tileheight="16" infinite="0" nextlayerid="3" nextobjectid="1">
 <editorsettings>
  <export target="arena1.lua" format="lua"/>
 </editorsettings>
 <tileset firstgid="1" name="TilesetFloor" tilewidth="16" tileheight="16" tilecount="572" columns="22">
  <image source="TilesetFloor.png" width="352" height="417"/>
 </tileset>
 <tileset firstgid="573" name="TilesetNature" tilewidth="16" tileheight="16" tilecount="504" columns="24">
  <image source="TilesetNature.png" width="384" height="336"/>
 </tileset>
 <layer id="1" name="Piso" width="40" height="20">
  <data encoding="csv">
309,310,310,310,310,310,310,310,310,310,310,310,310,310,310,310,310,310,310,310,310,310,310,310,310,310,310,310,310,310,310,310,310,310,310,310,310,310,310,311,
331,332,332,332,332,332,332,332,332,332,332,332,332,332,332,332,332,332,332,332,332,332,332,332,332,332,332,332,332,332,332,332,332,332,332,332,332,332,332,333,
331,332,332,332,332,332,332,332,332,332,332,332,332,332,332,332,332,332,332,332,332,332,332,332,332,332,332,332,332,332,332,332,332,332,332,332,332,332,332,333,
331,332,332,332,332,332,332,332,332,332,332,332,332,332,332,332,332,332,332,332,332,332,332,332,332,332,332,332,332,332,332,332,332,332,332,332,332,332,332,333,
331,332,332,332,332,332,332,332,332,332,332,332,332,332,332,332,332,332,332,332,332,332,332,332,332,332,332,332,332,332,332,332,332,332,332,332,332,332,332,333,
331,332,332,332,332,332,332,332,332,332,332,332,332,332,332,332,332,332,332,332,332,332,332,332,332,332,332,332,332,332,332,332,332,332,332,332,332,332,332,333,
331,332,332,332,332,332,332,332,332,332,332,332,332,332,332,332,332,332,332,332,332,332,332,332,332,332,332,332,332,332,332,332,332,332,332,332,332,332,332,333,
331,332,332,332,332,332,332,332,332,332,332,332,332,332,332,332,332,332,332,332,332,332,332,332,332,332,332,332,332,332,332,332,332,332,332,332,332,332,332,333,
331,332,332,332,332,332,332,332,332,332,332,332,332,332,332,332,332,332,332,332,332,332,332,332,332,332,332,332,332,332,332,332,332,332,332,332,332,332,332,333,
331,332,332,332,332,332,332,332,332,332,332,332,332,332,332,332,332,332,332,336,337,332,332,332,332,332,332,332,332,332,332,332,332,332,332,332,332,332,332,333,
331,332,332,332,332,332,332,332,332,332,332,332,332,332,332,332,332,332,332,358,359,332,332,332,332,332,332,332,332,332,332,332,332,332,332,332,332,332,332,333,
331,332,332,332,332,332,332,332,332,332,332,332,332,332,332,332,332,332,332,332,332,332,332,332,332,332,332,332,332,332,332,332,332,332,332,332,332,332,332,333,
331,332,332,332,332,332,332,332,332,332,332,332,332,332,332,332,332,332,332,332,332,332,332,332,332,332,332,332,332,332,332,332,332,332,332,332,332,332,332,333,
331,332,332,332,332,332,332,332,332,332,332,332,332,332,332,332,332,332,332,332,332,332,332,332,332,332,332,332,332,332,332,332,332,332,332,332,332,332,332,333,
331,332,332,332,332,332,332,332,332,332,332,332,332,332,332,332,332,332,332,332,332,332,332,332,332,332,332,332,332,332,332,332,332,332,332,332,332,332,332,333,
331,332,332,332,332,332,332,332,332,332,332,332,332,332,332,332,332,332,332,332,332,332,332,332,332,332,332,332,332,332,332,332,332,332,332,332,332,332,332,333,
331,332,332,332,332,332,332,332,332,332,332,332,332,332,332,332,332,332,332,332,332,332,332,332,332,332,332,332,332,332,332,332,332,332,332,332,332,332,332,333,
331,332,332,332,332,332,332,332,332,332,332,332,332,332,332,332,332,332,332,332,332,332,332,332,332,332,332,332,332,332,332,332,332,332,332,332,332,332,332,333,
331,332,332,332,332,332,332,332,332,332,332,332,332,332,332,332,332,332,332,332,332,332,332,332,332,332,332,332,332,332,332,332,332,332,332,332,332,332,332,333,
353,354,354,354,354,354,354,354,354,354,354,354,354,354,354,354,354,354,354,354,354,354,354,354,354,354,354,354,354,354,354,354,354,354,354,354,354,354,354,355
</data>
 </layer>
 <layer id="2" name="Deco" width="40" height="20">
  <data encoding="csv">
0,0,0,0,0,0,0,0,0,0,0,0,0,0,0,0,0,0,0,0,583,584,583,584,0,583,584,583,584,583,584,583,584,583,584,583,584,583,584,0,
0,0,0,0,0,0,0,0,0,0,0,0,0,0,0,0,0,0,0,0,607,608,607,608,0,607,608,607,608,607,608,607,608,607,608,607,608,607,608,0,
0,0,0,0,0,0,0,0,863,864,0,0,0,0,0,0,0,0,0,0,0,0,0,0,0,0,0,863,864,0,0,0,0,0,0,0,0,583,584,0,
0,0,0,0,0,0,0,0,887,888,0,0,0,0,0,0,0,0,0,0,0,0,0,0,0,0,0,887,888,0,0,0,0,0,0,0,0,607,608,0,
0,0,0,0,0,0,0,0,0,0,0,0,0,0,0,0,1011,1012,1013,0,0,0,0,0,0,0,0,0,0,0,0,0,0,0,0,0,0,583,584,0,
0,0,0,0,0,0,0,0,0,0,0,0,0,0,0,0,1035,1036,1037,0,0,1011,1012,1013,0,0,0,0,0,0,0,1011,1012,1013,0,0,0,607,608,0,
0,0,0,0,0,0,0,0,0,0,0,0,1011,1012,1013,0,1059,1060,1061,0,0,1035,1036,1037,0,0,0,0,0,0,0,1035,1036,1037,0,0,0,0,0,0,
926,927,928,929,0,0,0,1011,1012,1013,0,0,1035,1036,1037,0,0,0,0,0,0,1059,1060,1061,0,0,0,1011,1012,1013,0,1059,1060,1061,0,0,0,0,0,0,
950,951,952,953,0,0,0,1035,1036,1037,0,0,1059,1060,1061,0,0,0,0,0,0,0,0,0,0,0,0,1035,1036,1037,0,0,0,0,0,0,0,0,0,0,
974,975,976,977,0,0,0,1059,1060,1061,0,0,0,0,0,0,0,0,0,0,0,0,0,0,0,0,0,1059,1060,1061,0,0,0,0,0,0,0,0,0,0,
0,0,0,0,0,0,0,0,0,0,0,0,0,0,0,0,0,1011,1012,1013,0,0,0,0,0,0,0,0,0,0,0,0,861,862,0,0,0,0,0,0,
0,0,0,0,0,0,0,0,0,0,0,0,0,0,0,0,0,1035,1036,1037,0,0,0,0,0,0,0,0,0,0,0,0,885,886,0,0,0,0,0,0,
0,0,0,0,1011,1012,1013,0,0,0,0,0,1011,1012,1013,0,0,1059,1060,1061,0,0,0,0,0,1011,1012,1013,0,0,0,0,0,0,0,0,0,0,0,0,
0,0,0,0,1035,1036,1037,0,0,0,0,0,1035,1036,1037,0,0,0,0,0,1011,1012,1013,0,0,1035,1036,1037,0,0,0,0,0,0,0,0,0,0,0,0,
0,0,0,0,1059,1060,1061,0,0,0,0,0,1059,1060,1061,0,0,0,0,0,1035,1036,1037,0,0,1059,1060,1061,0,0,0,0,0,0,0,0,0,0,0,0,
0,0,0,0,0,0,0,0,0,0,0,0,0,0,0,0,0,0,0,0,1059,1060,1061,0,0,0,0,0,0,0,0,0,0,0,0,0,0,0,0,0,
0,0,0,0,0,0,0,1011,1012,1013,0,0,0,0,0,1011,1012,1013,0,0,0,0,0,0,0,0,0,0,0,0,0,0,0,0,0,0,0,0,0,0,
0,0,0,0,0,0,0,1035,1036,1037,0,0,0,0,0,1035,1036,1037,0,0,0,0,0,0,0,0,0,0,0,0,0,0,0,0,0,0,0,0,0,0,
0,0,0,0,0,0,0,1059,1060,1061,0,0,0,0,0,1059,1060,1061,0,0,0,0,0,0,0,0,0,0,0,0,0,0,0,0,0,0,0,0,0,0,
0,0,0,0,0,0,0,0,0,0,0,0,0,0,0,0,0,0,0,0,0,0,0,0,0,0,0,0,0,0,0,0,0,0,0,0,0,0,0,0
</data>
 </layer>
</map>
